assets/home_icon-fill.svg

<svg width="24" height="24" viewBox="0 0 24 24" fill="none" xmlns="http://www.w3.org/2000/svg">
<path fill-rule="evenodd" clip-rule="evenodd" d="M12.8281 0.331553C12.3645 -0.110518 11.6355 -0.110518 11.1719 0.331553L0.371869 10.6302C0.134385 10.8566 0 11.1705 0 11.4986V22.8C0 23.4627 0.537258 24 1.2 24H8.4V18C8.4 16.6745 9 14.4 12 14.4C15 14.4 15.6 16.6745 15.6 18V24H22.8C23.4627 24 24 23.4627 24 22.8V11.4986C24 11.1705 23.8656 10.8566 23.6281 10.6302L12.8281 0.331553Z" fill="#111111"/>
</svg>

<?xml version="1.0" encoding="UTF-8"?>
<svg id="Layer_1" xmlns="http://www.w3.org/2000/svg" version="1.1" viewBox="0 0 24 24">
  <!-- Generator: Adobe Illustrator 29.7.1, SVG Export Plug-In . SVG Version: 2.1.1 Build 8)  -->
  <path d="M12.8.3c-.5-.4-1.2-.4-1.7,0L.4,10.6c-.2.2-.4.5-.4.9v11.3c0,.7.5,1.2,1.2,1.2h7.2v-6c0-1.3.6-3.6,3.6-3.6s3.6,2.3,3.6,3.6v6h7.2c.7,0,1.2-.5,1.2-1.2v-11.3c0-.3-.1-.6-.4-.9L12.8.3Z" fill="#111" fill-rule="evenodd"/>
</svg>
